X:151
T: Drei Schneider und ein Schleck (2-53) S. 169
N: P0926
O: Lothringen
S: PINCK, Louis: Verklingende Weisen, Bd 2, Metz 1928]
R: Spottlied]
M: 4/4
L: 1/8
K: G
D2 | D2GGG2B2 | B2AAA2c2 | B4z2
D2 | D2GGG2BB | B2AAA2c2 | B4z2
c2 | B2ded2cB | AABBc2
A2 | GGB2dcG2 | F2A2A2
d2 | B2B2ABA2 | G4z2

@@@ Tune index: 7701
